icon-themes/breeze_svg/cmd/32/selectall.svg

<svg viewBox="0 0 32 32" xmlns="http://www.w3.org/2000/svg"><path d="m4 4v4h1v-3h3v-1zm20 0v1h3v3h1v-4zm-17 3v8h8v-8zm10 0v8h8v-8zm-9 1h6v6h-6zm10 0h6v6h-6zm-11 9v8h8v-8zm10 0v8h8v-8zm-9 1h6v6h-6zm10 0h6v6h-6zm-14 6v4h4v-1h-3v-3zm23 0v3h-3v1h4v-4z" fill="#4d4d4d"/></svg>

<svg xmlns="http://www.w3.org/2000/svg" viewBox="0 0 32 32">
 <path 
     style="fill:#4d4d4d" 
     d="M 4 4 L 4 8 L 5 8 L 5 5 L 8 5 L 8 4 L 4 4 z M 24 4 L 24 5 L 27 5 L 27 8 L 28 8 L 28 4 L 24 4 z M 7 7 L 7 15 L 15 15 L 15 7 L 7 7 z M 17 7 L 17 15 L 25 15 L 25 7 L 17 7 z M 8 8 L 14 8 L 14 14 L 8 14 L 8 8 z M 18 8 L 24 8 L 24 14 L 18 14 L 18 8 z M 7 17 L 7 25 L 15 25 L 15 17 L 7 17 z M 17 17 L 17 25 L 25 25 L 25 17 L 17 17 z M 8 18 L 14 18 L 14 24 L 8 24 L 8 18 z M 18 18 L 24 18 L 24 24 L 18 24 L 18 18 z M 4 24 L 4 28 L 8 28 L 8 27 L 5 27 L 5 24 L 4 24 z M 27 24 L 27 27 L 24 27 L 24 28 L 28 28 L 28 24 L 27 24 z "
     />
</svg>
